img/icons/warning.svg

<svg width="40" height="40" viewBox="0 0 40 40" fill="none" xmlns="http://www.w3.org/2000/svg">
<path fill-rule="evenodd" clip-rule="evenodd" d="M36.6666 20C36.6666 29.2047 29.2047 36.6667 19.9999 36.6667H4.98941C3.51688 36.6667 2.77944 34.8714 3.82067 33.8215L7.08241 30.5325C4.73882 27.6616 3.33325 23.995 3.33325 20C3.33325 10.7952 10.7952 3.33333 19.9999 3.33333C29.2047 3.33333 36.6666 10.7952 36.6666 20ZM21.65 13.3333C21.65 12.4129 20.9075 11.6667 19.9916 11.6667C19.0757 11.6667 18.3333 12.4129 18.3333 13.3333V20C18.3333 20.9205 19.0757 21.6667 19.9916 21.6667C20.9075 21.6667 21.65 20.9205 21.65 20V13.3333ZM19.9916 25C19.0757 25 18.3333 25.7462 18.3333 26.6667C18.3333 27.5871 19.0757 28.3333 19.9916 28.3333H20.0082C20.9241 28.3333 21.6666 27.5871 21.6666 26.6667C21.6666 25.7462 20.9241 25 20.0082 25H19.9916Z" fill="#FFC400"/>
</svg>

<svg width="40" height="40" viewBox="0 0 40 40" fill="none" xmlns="http://www.w3.org/2000/svg"><path fill-rule="evenodd" clip-rule="evenodd" d="M36.667 20c0 9.205-7.462 16.667-16.667 16.667H4.99c-1.473 0-2.21-1.796-1.17-2.846l3.262-3.288A16.598 16.598 0 013.333 20c0-9.205 7.462-16.667 16.667-16.667 9.205 0 16.667 7.462 16.667 16.667zM21.65 13.333c0-.92-.742-1.666-1.658-1.666-.916 0-1.659.746-1.659 1.666V20c0 .92.743 1.667 1.659 1.667.915 0 1.658-.747 1.658-1.667v-6.667zM19.992 25c-.916 0-1.659.746-1.659 1.667 0 .92.743 1.666 1.659 1.666h.016c.916 0 1.659-.746 1.659-1.666 0-.92-.743-1.667-1.659-1.667h-.016z" fill="#FFC400"/></svg>
